X:2
T:2025-02-25
T:Peter Crawley's
M:6/8
L:1/8
K:G
%%
d>cB  B>AG | G>FE D3 | DGA BAG | d<cB {B}A3 |
d>cB  B<AG | G>FE D3 | D>GB d<cB | A2 {BA}G3 A ||
~B3 ~c3 | B3 A3 | B<cd d>cB | B>AG A2 A|
~B3 ~c3 | B3 A3 | B>cd e>dc | B<dF G2 |

